<?xml version="1.0" encoding="UTF-8"?>
<!--
  Original Engine Lite Issue #14 probe map.
  Author/owner: Balehlah / Engine Lite contributors.
  SPDX-License-Identifier: Apache-2.0
-->
<map version="1.10" tiledversion="1.11.2" orientation="orthogonal"
     renderorder="right-down" width="1" height="1" tilewidth="16"
     tileheight="16" infinite="0" nextlayerid="2" nextobjectid="2">
  <objectgroup id="1" name="probes">
    <object id="1" name="spawn" type="probe" x="0" y="0"
            width="16" height="16"/>
  </objectgroup>
</map>
